img/partners/slack.svg

<svg width="136" height="40" viewBox="0 0 136 40" fill="none" xmlns="http://www.w3.org/2000/svg">
<path d="M24.9814 3.90193C24.4407 2.13035 22.5482 1.17642 20.791 1.72152C19.0337 2.26662 18.0875 4.17448 18.6282 5.94607L27.2793 32.7924C27.8876 34.4277 29.6449 35.3817 31.3345 34.9047C33.0918 34.3596 34.1732 32.5199 33.6325 30.7483C33.6325 30.6801 24.9814 3.90193 24.9814 3.90193Z" fill="#8C98A4"/>
<path d="M11.5991 8.33089C11.0584 6.5593 9.16597 5.60537 7.4087 6.15047C5.65144 6.69558 4.70522 8.60344 5.24592 10.375L13.8971 37.2214C14.5053 38.8567 16.2626 39.8106 17.9523 39.3336C19.7095 38.7885 20.7909 36.9488 20.2502 35.1772C20.2502 35.1091 11.5991 8.33089 11.5991 8.33089Z" fill="#8C98A4"/>
<path d="M35.9304 26.1831C37.6877 25.638 38.6339 23.7302 38.0932 21.9586C37.5525 20.187 35.6601 19.2331 33.9028 19.7782L7.20594 28.4317C5.58385 29.0449 4.63763 30.8165 5.11074 32.52C5.65143 34.2915 7.47628 35.3817 9.23355 34.8366C9.36872 34.8366 35.9304 26.1831 35.9304 26.1831Z" fill="#8C98A4"/>
<path d="M12.7481 33.7464C14.5054 33.2013 16.7357 32.4517 19.1013 31.6341C18.5606 29.8625 17.8171 27.614 17.0061 25.2291L10.6529 27.3414L12.7481 33.7464Z" fill="#8C98A4"/>
<path d="M26.1979 29.3174C28.6311 28.4998 30.8614 27.8184 32.5511 27.2051C32.0104 25.4336 31.267 23.185 30.4559 20.8002L24.1027 22.9124L26.1979 29.3174Z" fill="#8C98A4"/>
<path d="M31.5373 12.6237C33.2946 12.0786 34.2408 10.1707 33.7001 8.39912C33.1594 6.62754 31.2669 5.67361 29.5097 6.21871L2.88037 14.9404C1.25828 15.5536 0.312065 17.3252 0.785175 19.0286C1.32587 20.8684 3.15072 21.9586 4.90799 21.3453C4.97557 21.3453 31.5373 12.6237 31.5373 12.6237Z" fill="#8C98A4"/>
<path d="M8.42253 20.1869C10.1798 19.6418 12.4102 18.8923 14.7757 18.0746C13.9647 15.6217 13.2888 13.3731 12.6805 11.6697L6.32733 13.782L8.42253 20.1869Z" fill="#8C98A4"/>
<path d="M21.8047 15.8261C24.2379 15.0084 26.4682 14.327 28.1579 13.7138C27.3469 11.2608 26.671 9.01229 26.0627 7.30884L19.7095 9.42111L21.8047 15.8261Z" fill="#8C98A4"/>
<path d="M62.8977 10.9883C64.0467 11.5334 64.1818 11.8741 63.2356 13.6456C62.2894 15.4854 62.0866 15.5535 60.8701 15.0765C59.3831 14.4633 57.5583 13.9863 56.3417 13.9863C54.3817 13.9863 53.0976 14.6677 53.0976 15.7579C53.0976 19.3011 64.3846 17.3932 64.3846 25.0247C64.3846 28.8404 61.1404 31.3615 56.2741 31.3615C53.7058 31.3615 50.5292 30.4757 48.3665 29.3855C47.2851 28.8404 47.2175 28.4997 48.1637 26.66C48.9747 25.0928 49.2451 24.8884 50.3941 25.3654C52.2865 26.183 54.5845 26.7963 56.2066 26.7963C58.0314 26.7963 59.1804 26.0467 59.1804 24.9565C59.1804 21.4815 47.6906 23.1168 47.6906 15.7579C47.6906 11.8741 50.9348 9.21667 55.7334 9.21667C58.0314 9.42109 60.9377 10.1025 62.8977 10.9883Z" fill="#8C98A4"/>
<path d="M72.0219 1.9941V30.3395C72.0219 30.7483 71.5488 31.2253 70.9405 31.2253H67.9667C67.2908 31.2253 66.8853 30.7483 66.8853 30.3395V1.9941C66.8853 0.563207 67.2908 0.495069 69.4536 0.495069C71.8868 0.426931 72.0219 0.631345 72.0219 1.9941Z" fill="#8C98A4"/>
<path fill-rule="evenodd" clip-rule="evenodd" d="M92.9739 30.0669V17.8702C92.9739 12.5555 89.3918 9.42114 83.7145 9.42114C81.1462 9.42114 78.3075 10.2388 76.2799 11.6016C75.1985 12.2829 75.1985 12.6236 76.2799 14.3271C77.4289 16.0305 77.6317 16.0987 78.7131 15.4854C80.0648 14.6678 81.7545 14.1227 83.1738 14.1227C86.1476 14.1227 87.9049 15.4854 87.9049 17.734V19.1649C86.4856 18.5516 84.7283 18.2109 82.8359 18.2109C77.7668 18.2109 74.4551 20.9365 74.4551 25.0247C74.4551 28.8405 77.4289 31.4297 81.8221 31.4297C84.12 31.4297 86.418 30.4758 87.9725 28.7042L87.9049 29.9988C87.8373 30.6802 88.3104 31.1571 88.9863 31.1571H91.8925C92.5008 31.1571 92.9739 30.7483 92.9739 30.0669ZM82.4304 27.3414C80.6055 27.3414 79.3889 26.3875 79.3889 24.9566C79.3889 23.185 81.2138 21.8222 83.9173 21.8222C85.2014 21.8222 86.6883 22.0267 87.8373 22.5036V24.4115C86.6883 26.2512 84.6607 27.3414 82.4304 27.3414Z" fill="#8C98A4"/>
<path d="M113.047 11.0565C114.129 11.6697 114.129 12.0104 112.98 13.8501C111.898 15.5536 111.696 15.6899 110.479 15.0766C109.6 14.5997 108.113 14.1908 106.964 14.1908C103.247 14.1908 100.814 16.6438 100.814 20.3914C100.814 24.2752 103.247 26.8645 106.964 26.8645C108.249 26.8645 109.871 26.3875 110.885 25.7743C111.966 25.161 112.169 25.161 113.318 26.8645C114.331 28.4317 114.331 28.7723 113.385 29.4537C111.763 30.6121 109.127 31.4979 106.829 31.4979C100.003 31.4979 95.4071 27.0689 95.4071 20.4595C95.4071 13.8501 100.003 9.48931 106.897 9.48931C109.06 9.42117 111.493 10.1026 113.047 11.0565Z" fill="#8C98A4"/>
<path d="M135.419 28.4998C136.297 29.59 135.959 29.9988 133.797 30.7484C131.634 31.566 131.296 31.4979 130.552 30.4758L124.402 22.2311L121.631 24.8885V30.2714C121.631 30.6802 121.158 31.1572 120.549 31.1572H117.576C116.9 31.1572 116.494 30.6802 116.494 30.2714V1.99415C116.494 0.563255 116.9 0.495117 119.063 0.495117C121.563 0.495117 121.631 0.699531 121.631 1.99415V18.0747L130.012 9.96629C130.958 9.0805 131.431 9.14863 133.121 10.2388C134.945 11.3972 135.081 11.7379 134.202 12.6237L127.984 18.7561L135.419 28.4998Z" fill="#8C98A4"/>
</svg>

<svg width="136" height="40" fill="none" xmlns="http://www.w3.org/2000/svg"><path d="M24.981 3.902c-.54-1.772-2.433-2.726-4.19-2.18-1.757.545-2.704 2.452-2.163 4.224l8.651 26.846c.609 1.636 2.366 2.59 4.055 2.113 1.758-.545 2.84-2.385 2.299-4.157 0-.068-8.652-26.846-8.652-26.846zM11.6 8.33c-.542-1.77-2.434-2.725-4.191-2.18-1.758.546-2.704 2.453-2.163 4.225l8.651 26.846c.608 1.636 2.366 2.59 4.055 2.113 1.757-.546 2.839-2.385 2.298-4.157 0-.068-8.65-26.846-8.65-26.846z" fill="#8C98A4"/><path d="M35.93 26.183c1.758-.545 2.704-2.453 2.163-4.224-.54-1.772-2.433-2.726-4.19-2.18L7.206 28.431c-1.622.613-2.568 2.385-2.095 4.088.54 1.771 2.365 2.862 4.123 2.317.135 0 26.696-8.654 26.696-8.654z" fill="#8C98A4"/><path d="M12.748 33.746c1.757-.545 3.988-1.294 6.353-2.112-.54-1.771-1.284-4.02-2.095-6.405l-6.353 2.112 2.095 6.405zM26.198 29.317c2.433-.817 4.663-1.499 6.353-2.112-.54-1.771-1.284-4.02-2.095-6.405l-6.353 2.112 2.095 6.405zM31.537 12.624c1.758-.545 2.704-2.453 2.163-4.225-.54-1.771-2.433-2.725-4.19-2.18L2.88 14.94C1.258 15.554.312 17.325.785 19.03c.54 1.84 2.366 2.93 4.123 2.316.068 0 26.63-8.721 26.63-8.721z" fill="#8C98A4"/><path d="M8.423 20.187c1.757-.545 3.987-1.295 6.353-2.112-.811-2.453-1.487-4.702-2.095-6.405l-6.354 2.112 2.096 6.405zM21.805 15.826c2.433-.818 4.663-1.499 6.353-2.112-.811-2.453-1.487-4.702-2.095-6.405L19.709 9.42l2.096 6.405zM62.898 10.988c1.149.545 1.284.886.338 2.658-.947 1.84-1.15 1.907-2.366 1.43-1.487-.613-3.312-1.09-4.528-1.09-1.96 0-3.244.682-3.244 1.772 0 3.543 11.287 1.635 11.287 9.267 0 3.815-3.245 6.337-8.11 6.337-2.57 0-5.746-.886-7.908-1.976-1.082-.546-1.15-.886-.203-2.726.81-1.567 1.081-1.772 2.23-1.295 1.892.818 4.19 1.431 5.813 1.431 1.824 0 2.973-.75 2.973-1.84 0-3.474-11.49-1.84-11.49-9.198 0-3.884 3.245-6.541 8.043-6.541 2.298.204 5.205.885 7.165 1.771zM72.022 1.994V30.34c0 .408-.473.885-1.082.885h-2.973c-.676 0-1.082-.477-1.082-.886V1.995c0-1.43.406-1.499 2.569-1.499 2.433-.068 2.568.136 2.568 1.5z" fill="#8C98A4"/><path fill-rule="evenodd" clip-rule="evenodd" d="M92.974 30.067V17.87c0-5.315-3.582-8.449-9.26-8.449-2.568 0-5.406.818-7.434 2.18-1.082.682-1.082 1.023 0 2.726 1.149 1.704 1.352 1.772 2.433 1.158 1.352-.817 3.041-1.362 4.46-1.362 2.975 0 4.732 1.362 4.732 3.611v1.43c-1.42-.612-3.177-.953-5.07-.953-5.068 0-8.38 2.726-8.38 6.814 0 3.816 2.974 6.405 7.367 6.405 2.298 0 4.596-.954 6.15-2.726L87.906 30c-.068.681.405 1.158 1.081 1.158h2.906c.609 0 1.082-.409 1.082-1.09zM82.43 27.34c-1.825 0-3.041-.954-3.041-2.384 0-1.772 1.825-3.135 4.528-3.135 1.284 0 2.771.205 3.92.682v1.907c-1.149 1.84-3.176 2.93-5.407 2.93z" fill="#8C98A4"/><path d="M113.047 11.056c1.082.614 1.082.954-.067 2.794-1.082 1.704-1.284 1.84-2.501 1.227-.879-.477-2.366-.886-3.515-.886-3.717 0-6.15 2.453-6.15 6.2 0 3.884 2.433 6.474 6.15 6.474 1.285 0 2.907-.477 3.921-1.09 1.081-.614 1.284-.614 2.433 1.09 1.013 1.567 1.013 1.907.067 2.589-1.622 1.158-4.258 2.044-6.556 2.044-6.826 0-11.422-4.43-11.422-11.039s4.596-10.97 11.49-10.97c2.163-.068 4.596.614 6.15 1.567zM135.419 28.5c.878 1.09.54 1.499-1.622 2.248-2.163.818-2.501.75-3.245-.272l-6.15-8.245-2.771 2.657v5.383c0 .41-.473.886-1.082.886h-2.973c-.676 0-1.082-.477-1.082-.886V1.994c0-1.43.406-1.499 2.569-1.499 2.5 0 2.568.205 2.568 1.5v16.08l8.381-8.109c.946-.885 1.419-.817 3.109.273 1.824 1.158 1.96 1.499 1.081 2.385l-6.218 6.132 7.435 9.744z" fill="#8C98A4"/></svg>
